scenes/presentdrop/img/loading.svg

<svg xmlns="http://www.w3.org/2000/svg" xmlns:xlink="http://www.w3.org/1999/xlink" width="496.7" height="261.8" viewBox="0 0 496.7 261.8"><symbol id="a" viewBox="-19 -19 48 38"><path opacity=".51" fill="none" stroke="#FEF2F3" stroke-width="3" stroke-miterlimit="10" d="M25.4-17.5h-40.9c-1.1 0-2.1.9-2.1 2.1v30.9c0 1.1.9 2.1 2.1 2.1h40.9c1.1 0 2.1-.9 2.1-2.1v-30.9c0-1.2-.9-2.1-2.1-2.1z"/><path fill="#FEF2F3" d="M-1.2 5.6L15.1 0-1.2-5.6z"/></symbol><use xlink:href="#a" width="48" height="38" x="-19" y="-19" transform="rotate(180 58.157 31.212) scale(3.272)" overflow="visible"/><use xlink:href="#a" width="48" height="38" x="-19" y="-19" transform="matrix(3.272 0 0 -3.272 377.908 62.425)" overflow="visible" opacity=".47"/><path opacity=".51" fill="none" stroke="#FEF2F3" stroke-width="9.817" stroke-miterlimit="10" d="M304.5 7.9V118c0 1.1-.9 2-2 2H191.3c-1.1 0-2-.9-2-2V7.9c0-1.1.9-2 2-2h111.2c1.1 0 2 .9 2 2z"/><path fill="#FEDF00" d="M241.854 169.75l22.293 16.612-13.384 17.962-22.293-16.61z"/><path fill="#F68B37" d="M245.8 185.2l6-8-2.3-1.7-6 8-7.7-5.7-1.7 2.3 7.7 5.7-5.7 7.6 2.3 1.8 5.7-7.7 12.3 9.1 1.7-2.2z"/><path fill="#D1D2D3" d="M259.735 183.1l4.33 3.228-13.383 17.962-4.33-3.226z"/><defs><path id="b" d="M191.8 148.2h107v114h-107z"/></defs><clipPath id="c"><use xlink:href="#b" overflow="visible"/></clipPath><g clip-path="url(#c)"><path fill="#fff" d="M222 203.5h54.2v88.3H222zm0 0h54.2v88.3H222z"/><path fill="#A6A8AC" d="M222 203.5h54.2v23H222z"/><path fill="#fff" d="M213.1 194.6h71.8v27.8h-71.8z"/><path fill="none" stroke="#A6A8AC" stroke-width="1.054" stroke-miterlimit="10" d="M222.1 291.4h54.3m-54.3-13.8h54.3m-54.3-13.8h54.3M222.1 250h54.3m-54.3-13.8h54.3M213 222.4h71.6m-71.8-13.9h72.1m-53.2-14v13.8m0 14.3v13.8m0 14.1v13.8m0 13.6v13.8m33.7-97.2v13.8m0 14.3v13.8m0 14.1v13.8m0 13.6v13.8m-16.3-82.9v13.8m0 13.8v13.8m0 13.4v13.8"/></g><path d="M237.3 181.9v-49.7m18.8 38.4v-9m-6.9 4.5v-26.8" fill="none" stroke="#B4E3F9" stroke-width="2" stroke-miterlimit="10"/><circle fill="#808184" cx="312.4" cy="89.9" r="4.7"/><circle fill="#808184" cx="164.3" cy="89.9" r="4.7"/><path fill="none" stroke="#A6A8AC" stroke-width="3.797" stroke-linecap="round" stroke-linejoin="round" stroke-miterlimit="10" d="M163.8 73.7v14.5m102-14.5v14.5m53.9 1.7H126.1"/><path fill="#DA4737" d="M191.9 53.5h17.7v17.7h-17.7z"/><path fill="#F68B37" d="M201.8 61.4v-7.9h-2.3v7.9h-7.6v2.3h7.6v7.5h2.3v-7.5h7.9v-2.3z"/><path fill="#49B880" d="M249.7 53.5h17.7v17.7h-17.7z"/><path fill="#DA4737" d="M259.5 61.4v-7.9h-2.3v7.9h-7.5v2.3h7.5v7.5h2.3v-7.5h7.9v-2.3z"/><path fill="#FEDF00" d="M272.7 53.5h17.7v17.7h-17.7z"/><path fill="#924496" d="M282.6 61.4v-7.9h-2.3v7.9h-7.6v2.3h7.6v7.5h2.3v-7.5h7.8v-2.3z"/><path fill="#21AAE1" d="M259 35.6h17.7v17.7H259z"/><path fill="#DA4737" d="M268.9 43.5v-7.9h-2.3v7.9H259v2.3h7.6v7.5h2.3v-7.5h7.8v-2.3z"/><path fill="#FEDF00" d="M176.7 18h17.7v17.7h-17.7z"/><path fill="#DA4737" d="M186.5 25.9V18h-2.3v7.9h-7.5v2.3h7.5v7.5h2.3v-7.5h7.9v-2.3z"/><path fill="#21AAE1" d="M171.7 53.5h17.7v17.7h-17.7z"/><path fill="#FEDF00" d="M181.5 61.4v-7.9h-2.2v7.9h-7.6v2.3h7.6v7.5h2.2v-7.5h7.9v-2.3z"/><path fill="#924496" d="M185 35.9h17.7v17.7H185z"/><path fill="#49B880" d="M194.9 43.8v-7.9h-2.3v7.9H185V46h7.6v7.6h2.3V46h7.8v-2.2z"/><path fill="#DA4737" d="M160.9 35.9h17.7v17.7h-17.7z"/><path fill="#FEDF00" d="M170.7 43.8v-7.9h-2.2v7.9h-7.6V46h7.6v7.6h2.2V46h7.9v-2.2z"/><path fill="#F68B37" d="M153 53.5h17.7v17.7H153z"/><path fill="#924496" d="M162.8 61.4v-7.9h-2.3v7.9H153v2.3h7.5v7.5h2.3v-7.5h7.9v-2.3z"/><path fill="none" stroke="#E82128" stroke-width="4.556" stroke-linecap="round" stroke-linejoin="round" stroke-miterlimit="10" d="M133.8 26c-4.9 0-9.4-6.1-9.2-11.9.2-4.9 4.2-10.6 10.8-10.6 10.5 0 14.1 8 13.1 16.9-2.4 20.5-23 53 7.4 53h135.7c18.2 0 17.7-23.9 2.3-25.1"/><path fill="none" stroke="#A6A8AC" stroke-width="3.797" stroke-linecap="round" stroke-linejoin="round" stroke-miterlimit="10" d="M317.5 87.8v-38"/><circle fill="#A6A8AC" cx="317.1" cy="47.9" r="4.6"/><path fill="none" stroke="#A6A8AC" stroke-width="3.797" stroke-linecap="round" stroke-linejoin="round" stroke-miterlimit="10" d="M126.1 87.8v-38"/><circle fill="#A6A8AC" cx="126.5" cy="47.9" r="4.6"/><path fill="#fff" d="M236.1 51.9v13.5H231V51.9"/><path fill="#EBC580" d="M236.1 51.9v8.9H231v-8.9"/><path fill="#333" d="M230.6 64.4h5.9c2 3.8 7.1 3.8 7.8 1 0 0 2.7 5.3-9.5 4.5-2.9-.1-5.2-2.7-4.2-5.5z"/><path fill="#fff" d="M223.8 51.9v13.5h5.1V51.9"/><path fill="#EBC580" d="M223.8 51.9v8.9h5.1v-8.9"/><path fill="#333" d="M229.2 64.4h-5.9c-2 3.8-7.1 3.8-7.8 1 0 0-2.7 5.3 9.5 4.5 3-.1 5.3-2.7 4.2-5.5z"/><path fill="#2B9746" d="M220.2 45.9c0 5.4 4.4 9.7 9.7 9.7 5.4 0 9.7-4.4 9.7-9.7V32.5c0-5.4-4.4-9.7-9.7-9.7-5.4 0-9.7 4.4-9.7 9.7v13.4z"/><path fill="#38B14A" d="M229.9 22.7c-2.9 0-5.5 1.3-7.3 3.3-1.5 1.7-2.4 4-2.4 6.4v13.4c0 5.4 4.4 9.7 9.7 9.7 5.4 0 5.7-4.4 5.7-9.7V32.5c-5 2.3-11.8-1-12.5-5.3-.8-4.3 6.8-4.5 6.8-4.5"/><path fill="#333" d="M220.2 41.1h19.5V46h-19.5z"/><path fill="#38B14A" d="M214.6 44.6c0 1.6 1.3 3 3 3 1.6 0 3-1.3 3-3V31.4c0-1.6-1.3-3-3-3-1.6 0-3 1.3-3 3v13.2z"/><circle fill="#EBC580" cx="217.2" cy="47.9" r="4.1"/><path fill="#2B9746" d="M239.6 44.6c0 1.6 1.3 3 3 3 1.6 0 3-1.3 3-3V31.4c0-1.6-1.3-3-3-3-1.6 0-3 1.3-3 3v13.2z"/><circle fill="#EBC580" cx="242.3" cy="47.9" r="4.1"/><path fill="#EBC580" d="M219.7 21.3c0 5.4 4.4 9.7 9.7 9.7 5.4 0 9.7-4.4 9.7-9.7 0-5.4-4.4-9.7-9.7-9.7-5.3 0-9.7 4.4-9.7 9.7zm12.1 8.3l-1.5 9.3c-.1 1.3-1.4 1.5-1.6 0l-1.3-11.1 4.4 1.8zm6.4-9.1l3.2-1.8s1.9 4.7-4.4 4.1l1.2-2.3zm-17.6 0l-3.2-1.8s-1.9 4.7 4.4 4.1l-1.2-2.3z"/><ellipse fill="#333" cx="225.6" cy="28.6" rx="1.8" ry=".3"/><ellipse fill="#333" cx="233.5" cy="28.6" rx="1.8" ry=".3"/><path fill="#fff" d="M218.4 16.3c0 6.2 5 11.2 11.2 11.2 6.2 0 11.2-5 11.2-11.2 0-6.2-5-11.2-11.2-11.2-6.2.1-11.2 5.1-11.2 11.2z"/><path fill="#2B9746" d="M220.4 15.3c0 5 4.1 9.1 9.1 9.1s9.1-4.1 9.1-9.1-4.1-9.1-9.1-9.1-9.1 4.1-9.1 9.1z"/><path fill="#38B14A" d="M222.2 13.5c0 4 3.2 7.2 7.2 7.2s7.2-3.2 7.2-7.2-3.2-7.2-7.2-7.2c-4-.1-7.2 3.2-7.2 7.2z"/><circle fill="#fff" cx="229.4" cy="10.5" r="2.7"/><path fill="#DA4737" d="M220.9 42.3h17.7V60h-17.7z"/><path fill="#FEDF00" d="M230.8 50.2v-7.9h-2.3v7.9h-7.6v2.3h7.6V60h2.3v-7.5h7.8v-2.3z"/><path fill="none" stroke="#6E6F71" stroke-width="2.291" stroke-miterlimit="10" d="M1.4 96.5h494.8M1.4 107h494.8"/><path opacity=".35" fill="none" stroke="#6E6F71" stroke-width="2.291" stroke-miterlimit="10" d="M1.4 97.4l10.5 8.7 10.6-8.7 10.5 8.7 10.5-8.7 10.5 8.7 10.6-8.7 10.5 8.7 10.5-8.7 10.6 8.7 10.5-8.7 10.5 8.7 10.5-8.7 10.6 8.7 10.5-8.7 10.5 8.7 10.5-8.7 10.6 8.7 10.5-8.7 10.5 8.7 10.6-8.7 10.5 8.7 10.5-8.7 10.5 8.7 10.6-8.7 10.5 8.7 10.5-8.7 10.6 8.7 10.5-8.7 10.5 8.7 10.5-8.7 10.6 8.7 10.5-8.7 10.5 8.7 10.6-8.7 10.5 8.7 10.5-8.7 10.5 8.7 10.6-8.7 10.5 8.7 10.5-8.7 10.6 8.7 10.5-8.7 10.5 8.7 10.5-8.7 10.6 8.7 10.5-8.7 10.5 8.7"/></svg>

<svg xmlns="http://www.w3.org/2000/svg" xmlns:xlink="http://www.w3.org/1999/xlink" width="496.7" height="261.8" viewBox="0 0 496.7 261.8"><symbol id="a" viewBox="-19 -19 48 38"><path opacity=".51" fill="none" stroke="#FEF2F3" stroke-width="3" stroke-miterlimit="10" d="M25.4-17.5h-40.9c-1.1 0-2.1.9-2.1 2.1v30.9c0 1.1.9 2.1 2.1 2.1h40.9c1.1 0 2.1-.9 2.1-2.1v-30.9c0-1.2-.9-2.1-2.1-2.1z"/><path fill="#FEF2F3" d="M-1.2 5.6L15.1 0-1.2-5.6z"/></symbol><use xlink:href="#a" width="48" height="38" x="-19" y="-19" transform="matrix(-3.272 0 0 -3.272 116.315 62.425)" overflow="visible"/><use xlink:href="#a" width="48" height="38" x="-19" y="-19" transform="matrix(3.272 0 0 -3.272 377.908 62.425)" overflow="visible" opacity=".47"/><path opacity=".51" fill="none" stroke="#FEF2F3" stroke-width="9.817" stroke-miterlimit="10" d="M304.5 7.9V118c0 1.1-.9 2-2 2H191.3c-1.1 0-2-.9-2-2V7.9c0-1.1.9-2 2-2h111.2c1.1 0 2 .9 2 2z"/><g><path fill="#FEDF00" d="M241.854 169.75l22.293 16.612-13.384 17.962-22.293-16.61z"/><path fill="#F68B37" d="M245.8 185.2l6-8-2.3-1.7-6 8-7.7-5.7-1.7 2.3 7.7 5.7-5.7 7.6 2.3 1.8 5.7-7.7 12.3 9.1 1.7-2.2z"/><path fill="#D1D2D3" d="M259.735 183.1l4.33 3.228-13.383 17.962-4.33-3.226z"/></g><defs><path id="b" d="M191.8 148.2h107v114h-107z"/></defs><clipPath id="c"><use xlink:href="#b" overflow="visible"/></clipPath><g clip-path="url(#c)"><path fill="#fff" d="M222 203.5h54.2v88.3H222zM222 203.5h54.2v88.3H222z"/><path fill="#A6A8AC" d="M222 203.5h54.2v23H222z"/><path fill="#fff" d="M213.1 194.6h71.8v27.8h-71.8z"/><path fill="none" stroke="#A6A8AC" stroke-width="1.054" stroke-miterlimit="10" d="M222.1 291.4h54.3M222.1 277.6h54.3M222.1 263.8h54.3M222.1 250h54.3M222.1 236.2h54.3M213 222.4h71.6M212.8 208.5h72.1M231.7 194.5v13.8M231.7 222.6v13.8M231.7 250.5v13.8M231.7 277.9v13.8M265.4 194.5v13.8M265.4 222.6v13.8M265.4 250.5v13.8M265.4 277.9v13.8M249.1 208.8v13.8M249.1 236.4v13.8M249.1 263.6v13.8"/></g><g fill="none" stroke="#B4E3F9" stroke-width="2" stroke-miterlimit="10"><path d="M237.3 181.9v-49.7M256.1 170.6v-9M249.2 166.1v-26.8"/></g><circle fill="#808184" cx="312.4" cy="89.9" r="4.7"/><circle fill="#808184" cx="164.3" cy="89.9" r="4.7"/><path fill="none" stroke="#A6A8AC" stroke-width="3.797" stroke-linecap="round" stroke-linejoin="round" stroke-miterlimit="10" d="M163.8 73.7v14.5M265.8 73.7v14.5M319.7 89.9H126.1"/><path fill="#DA4737" d="M191.9 53.5h17.7v17.7h-17.7z"/><path fill="#F68B37" d="M201.8 61.4v-7.9h-2.3v7.9h-7.6v2.3h7.6v7.5h2.3v-7.5h7.9v-2.3z"/><path fill="#49B880" d="M249.7 53.5h17.7v17.7h-17.7z"/><path fill="#DA4737" d="M259.5 61.4v-7.9h-2.3v7.9h-7.5v2.3h7.5v7.5h2.3v-7.5h7.9v-2.3z"/><path fill="#FEDF00" d="M272.7 53.5h17.7v17.7h-17.7z"/><path fill="#924496" d="M282.6 61.4v-7.9h-2.3v7.9h-7.6v2.3h7.6v7.5h2.3v-7.5h7.8v-2.3z"/><path fill="#21AAE1" d="M259 35.6h17.7v17.7H259z"/><path fill="#DA4737" d="M268.9 43.5v-7.9h-2.3v7.9H259v2.3h7.6v7.5h2.3v-7.5h7.8v-2.3z"/><path fill="#FEDF00" d="M176.7 18h17.7v17.7h-17.7z"/><path fill="#DA4737" d="M186.5 25.9V18h-2.3v7.9h-7.5v2.3h7.5v7.5h2.3v-7.5h7.9v-2.3z"/><path fill="#21AAE1" d="M171.7 53.5h17.7v17.7h-17.7z"/><path fill="#FEDF00" d="M181.5 61.4v-7.9h-2.2v7.9h-7.6v2.3h7.6v7.5h2.2v-7.5h7.9v-2.3z"/><path fill="#924496" d="M185 35.9h17.7v17.7H185z"/><path fill="#49B880" d="M194.9 43.8v-7.9h-2.3v7.9H185V46h7.6v7.6h2.3V46h7.8v-2.2z"/><path fill="#DA4737" d="M160.9 35.9h17.7v17.7h-17.7z"/><path fill="#FEDF00" d="M170.7 43.8v-7.9h-2.2v7.9h-7.6V46h7.6v7.6h2.2V46h7.9v-2.2z"/><path fill="#F68B37" d="M153 53.5h17.7v17.7H153z"/><path fill="#924496" d="M162.8 61.4v-7.9h-2.3v7.9H153v2.3h7.5v7.5h2.3v-7.5h7.9v-2.3z"/><path fill="none" stroke="#E82128" stroke-width="4.556" stroke-linecap="round" stroke-linejoin="round" stroke-miterlimit="10" d="M133.8 26c-4.9 0-9.4-6.1-9.2-11.9.2-4.9 4.2-10.6 10.8-10.6 10.5 0 14.1 8 13.1 16.9-2.4 20.5-23 53 7.4 53h135.7c18.2 0 17.7-23.9 2.3-25.1"/><path fill="none" stroke="#A6A8AC" stroke-width="3.797" stroke-linecap="round" stroke-linejoin="round" stroke-miterlimit="10" d="M317.5 87.8v-38"/><circle fill="#A6A8AC" cx="317.1" cy="47.9" r="4.6"/><path fill="none" stroke="#A6A8AC" stroke-width="3.797" stroke-linecap="round" stroke-linejoin="round" stroke-miterlimit="10" d="M126.1 87.8v-38"/><circle fill="#A6A8AC" cx="126.5" cy="47.9" r="4.6"/><path fill="#fff" d="M236.1 51.9v13.5H231V51.9"/><path fill="#EBC580" d="M236.1 51.9v8.9H231v-8.9"/><path fill="#333" d="M230.6 64.4h5.9c2 3.8 7.1 3.8 7.8 1 0 0 2.7 5.3-9.5 4.5-2.9-.1-5.2-2.7-4.2-5.5z"/><path fill="#fff" d="M223.8 51.9v13.5h5.1V51.9"/><path fill="#EBC580" d="M223.8 51.9v8.9h5.1v-8.9"/><path fill="#333" d="M229.2 64.4h-5.9c-2 3.8-7.1 3.8-7.8 1 0 0-2.7 5.3 9.5 4.5 3-.1 5.3-2.7 4.2-5.5z"/><path fill="#2B9746" d="M220.2 45.9c0 5.4 4.4 9.7 9.7 9.7 5.4 0 9.7-4.4 9.7-9.7V32.5c0-5.4-4.4-9.7-9.7-9.7-5.4 0-9.7 4.4-9.7 9.7v13.4z"/><path fill="#38B14A" d="M229.9 22.7c-2.9 0-5.5 1.3-7.3 3.3-1.5 1.7-2.4 4-2.4 6.4v13.4c0 5.4 4.4 9.7 9.7 9.7 5.4 0 5.7-4.4 5.7-9.7V32.5c-5 2.3-11.8-1-12.5-5.3-.8-4.3 6.8-4.5 6.8-4.5"/><path fill="#333" d="M220.2 41.1h19.5V46h-19.5z"/><path fill="#38B14A" d="M214.6 44.6c0 1.6 1.3 3 3 3 1.6 0 3-1.3 3-3V31.4c0-1.6-1.3-3-3-3-1.6 0-3 1.3-3 3v13.2z"/><circle fill="#EBC580" cx="217.2" cy="47.9" r="4.1"/><path fill="#2B9746" d="M239.6 44.6c0 1.6 1.3 3 3 3 1.6 0 3-1.3 3-3V31.4c0-1.6-1.3-3-3-3-1.6 0-3 1.3-3 3v13.2z"/><circle fill="#EBC580" cx="242.3" cy="47.9" r="4.1"/><path fill="#EBC580" d="M219.7 21.3c0 5.4 4.4 9.7 9.7 9.7 5.4 0 9.7-4.4 9.7-9.7 0-5.4-4.4-9.7-9.7-9.7-5.3 0-9.7 4.4-9.7 9.7zM231.8 29.6l-1.5 9.3c-.1 1.3-1.4 1.5-1.6 0l-1.3-11.1 4.4 1.8zM238.2 20.5l3.2-1.8s1.9 4.7-4.4 4.1l1.2-2.3zM220.6 20.5l-3.2-1.8s-1.9 4.7 4.4 4.1l-1.2-2.3z"/><ellipse fill="#333" cx="225.6" cy="28.6" rx="1.8" ry=".3"/><ellipse fill="#333" cx="233.5" cy="28.6" rx="1.8" ry=".3"/><path fill="#fff" d="M218.4 16.3c0 6.2 5 11.2 11.2 11.2 6.2 0 11.2-5 11.2-11.2 0-6.2-5-11.2-11.2-11.2-6.2.1-11.2 5.1-11.2 11.2z"/><path fill="#2B9746" d="M220.4 15.3c0 5 4.1 9.1 9.1 9.1s9.1-4.1 9.1-9.1-4.1-9.1-9.1-9.1-9.1 4.1-9.1 9.1z"/><path fill="#38B14A" d="M222.2 13.5c0 4 3.2 7.2 7.2 7.2s7.2-3.2 7.2-7.2-3.2-7.2-7.2-7.2c-4-.1-7.2 3.2-7.2 7.2z"/><circle fill="#fff" cx="229.4" cy="10.5" r="2.7"/><path fill="#DA4737" d="M220.9 42.3h17.7V60h-17.7z"/><path fill="#FEDF00" d="M230.8 50.2v-7.9h-2.3v7.9h-7.6v2.3h7.6V60h2.3v-7.5h7.8v-2.3z"/><path fill="none" stroke="#6E6F71" stroke-width="2.291" stroke-miterlimit="10" d="M1.4 96.5h494.8M1.4 107h494.8"/><path opacity=".35" fill="none" stroke="#6E6F71" stroke-width="2.291" stroke-miterlimit="10" d="M1.4 97.4l10.5 8.7 10.6-8.7 10.5 8.7 10.5-8.7 10.5 8.7 10.6-8.7 10.5 8.7 10.5-8.7 10.6 8.7 10.5-8.7 10.5 8.7 10.5-8.7 10.6 8.7 10.5-8.7 10.5 8.7 10.5-8.7 10.6 8.7 10.5-8.7 10.5 8.7 10.6-8.7 10.5 8.7 10.5-8.7 10.5 8.7 10.6-8.7 10.5 8.7 10.5-8.7 10.6 8.7 10.5-8.7 10.5 8.7 10.5-8.7 10.6 8.7 10.5-8.7 10.5 8.7 10.6-8.7 10.5 8.7 10.5-8.7 10.5 8.7 10.6-8.7 10.5 8.7 10.5-8.7 10.6 8.7 10.5-8.7 10.5 8.7 10.5-8.7 10.6 8.7 10.5-8.7 10.5 8.7"/></svg>
